!!!OTL: Drei Soldaten Es waren mal drei Soldaten,
!!!ARE: Europa, Mitteleuropa, Lothringen, Hambach
!!!SCT: D0059
!!!YEM: Copyright 1995, estate of Helmut Schaffrath.
**kern
*ICvox
*Ivox
*M4/4
*k[f#c#]
*D:
{4d
=1
4.d
8e
4f#
8g
8g
=2
4.a
8b
4a}
{4dd
=3
8cc#
8b
4a
8b
8cc#
4b
=4
2a
4r}
{4a
=5
4dd
4a
8b
8cc#
4b
=6
4.a
8g
4f#}
{4b
=7
4b
4a
8a
8f#
8a
8f#
=8
4f#
4d
4e}
{8a
8b
=9
4a
8e
8g
4f#
4e
=10
2d
4r}
==
!!!AGN: Ballade, Liebe, Freibitte fuer den Geliebten
!! Verzierung; Inzipit = Variante zum Lied
!!!ONB: ESAC (Essen Associative Code) Database: DVA
!!!AMT: simple quadruple
!!!AIN: vox
!!!EED: Helmut Schaffrath
!!!EEV: 1.0
*-
